X:2
T:Mrs. Farquharson's Jigg or Quick Step
C:Robert Petrie
S:Petrie's Collection of Strathspey Reels and Country Dances &c., 1790
Z:Steve Wyrick , 3/20/04
N:Petrie's First Collection, page 2
L:1/8
V:1 name = "violin"
V:2 name = "bass" clef=bass middle=d transpose=-24
M:6/8
R:Jig
K:CM
[V:1] G|(Tc=Bc) GEC|(Tc=Bc) edc|(Tc=Bc) G=A_B| FGE DCB, |
[V:2] z|C3      E3 |  F3    G3 | c3     e3   | d2f b2B  |
[V:1]   (Tc=Bc) GEC|cde     dec|=BGg    fed  | ecc c2  :|
%Petrie's original does not show the B flat in the third measure -SW
[V:2]   c3      e3 |  a3    f3 | g2 e   g2G  | c3  C2  :|
[V:1] c|(Tgfg)  edc|(Tgfg)  fed|(Tgfg)  cde  |=Bcd G3   |
[V:2] z|c3      c'3| =b3    g3 | e3     f3   | g3  gaf  |
[V:1]   (Tgfg)  edc|(Tgfg)  fed| efg    fed  | ecc c3   |
[V:2]   e3      c3 | =B3    G3 | c2e    g2G  | c3  CEG  |
[V:1]   (Tgfg)  edc|(Tgfg)  fed|(Tgfg)  cde  |=Bcd G2F  |
[V:2]   c3      c'3| =b3    g3 | c3     f3   | g3  G=A=B|
[V:1]   EDC     FED| GFE    AGF| Ged    cd=B | c2c c2  |]
[V:2]   c3      G3 | c3     f3 | e2f    g2G  | cGE C2  |]
% The above code was written using Phil Taylor's BarFly abc reader/converter/player program.
% Other abc converters (e.g. abc2ps) may require everything after the word "bass" to be
% deleted in the V:2 header line for correct display of notes the bass clef, or require that
% the M: and K: fields be repeated directly under the V:1 header line to display the meter
% and key signature on both staffs.  Some abc MIDI players (e.g. abc2midi) will not play
% multiple-voiced abc code.  -SW
